icons/terminal.svg

<svg width="24" height="24" viewBox="0 0 24 24" fill="none" xmlns="http://www.w3.org/2000/svg">
<path fill-rule="evenodd" clip-rule="evenodd" d="M2 4C2 3.44772 2.44772 3 3 3H21C21.5523 3 22 3.44772 22 4V20C22 20.5523 21.5523 21 21 21H3C2.44772 21 2 20.5523 2 20V4ZM4 5V19H20V5H4ZM6.29289 8.29289C6.68342 7.90237 7.31658 7.90237 7.70711 8.29289L10.7071 11.2929C11.0976 11.6834 11.0976 12.3166 10.7071 12.7071L7.70711 15.7071C7.31658 16.0976 6.68342 16.0976 6.29289 15.7071C5.90237 15.3166 5.90237 14.6834 6.29289 14.2929L8.58579 12L6.29289 9.70711C5.90237 9.31658 5.90237 8.68342 6.29289 8.29289ZM12 16C12 15.4477 12.4477 15 13 15H17C17.5523 15 18 15.4477 18 16C18 16.5523 17.5523 17 17 17H13C12.4477 17 12 16.5523 12 16Z" fill="black"/>
</svg>

<svg
  width="24"
  height="24"
  viewBox="0 0 24 24"
  xmlns="http://www.w3.org/2000/svg"
>
  <path
    fill-rule="evenodd"
    clip-rule="evenodd"
    d="M2 4a1 1 0 0 1 1-1h18a1 1 0 0 1 1 1v16a1 1 0 0 1-1 1H3a1 1 0 0 1-1-1V4zm2 1v14h16V5H4zm2.293 3.293a1 1 0 0 1 1.414 0l3 3a1 1 0 0 1 0 1.414l-3 3a1 1 0 0 1-1.414-1.414L8.586 12 6.293 9.707a1 1 0 0 1 0-1.414zM12 16a1 1 0 0 1 1-1h4a1 1 0 1 1 0 2h-4a1 1 0 0 1-1-1z"
  />
</svg>
